public/images/whatsapp_logo.svg

<?xml version="1.0" encoding="UTF-8" standalone="no"?>
<svg
   width="83"
   height="83"
   viewBox="0 0 83 83"
   fill="none"
   version="1.1"
   id="svg30"
   sodipodi:docname="whatsapp_logo.svg"
   inkscape:version="1.2 (dc2aedaf03, 2022-05-15)"
   xmlns:inkscape="http://www.inkscape.org/namespaces/inkscape"
   xmlns:sodipodi="http://sodipodi.sourceforge.net/DTD/sodipodi-0.dtd"
   xmlns="http://www.w3.org/2000/svg"
   xmlns:svg="http://www.w3.org/2000/svg">
  <sodipodi:namedview
     id="namedview32"
     pagecolor="#ffffff"
     bordercolor="#000000"
     borderopacity="0.25"
     inkscape:showpageshadow="2"
     inkscape:pageopacity="0.0"
     inkscape:pagecheckerboard="0"
     inkscape:deskcolor="#d1d1d1"
     showgrid="false"
     inkscape:zoom="2.4216867"
     inkscape:cx="3.5099502"
     inkscape:cy="25.808458"
     inkscape:window-width="1920"
     inkscape:window-height="991"
     inkscape:window-x="-9"
     inkscape:window-y="-9"
     inkscape:window-maximized="1"
     inkscape:current-layer="svg30" />
  <g
     filter="url(#filter0_d)"
     id="g6"
     transform="translate(0,3.211883)">
    <path
       d="M 41.5,75 C 62.2107,75 79,58.2107 79,37.5 79,16.7893 62.2107,0 41.5,0 20.7893,0 4,16.7893 4,37.5 4,58.2107 20.7893,75 41.5,75 Z"
       fill="url(#paint0_linear)"
       id="path2"
       style="fill:url(#paint0_linear)" />
    <path
       fill-rule="evenodd"
       clip-rule="evenodd"
       d="m 63,35.9744 c 0,11.0384 -9.011,19.9743 -20.1245,19.9743 -3.5293,0 -6.8334,-0.9011 -9.7244,-2.478 L 22,57 25.6419,46.2995 C 23.8022,43.2582 22.7509,39.7289 22.7509,35.9744 22.7509,24.9359 31.7619,16 42.8755,16 53.989,16 63,24.9359 63,35.9744 Z M 42.8755,19.1914 c -9.3114,0 -16.9332,7.5467 -16.9332,16.783 0,3.6794 1.2015,7.0586 3.2289,9.837 l -2.1025,6.2326 6.4954,-2.0651 c 2.6658,1.7647 5.8571,2.7784 9.3114,2.7784 9.3113,0 16.8956,-7.5467 16.8956,-16.7829 0,-9.2739 -7.5843,-16.783 -16.8956,-16.783 z m 10.1373,21.3635 c -0.1126,-0.1877 -0.4505,-0.3379 -0.9386,-0.5631 -0.4881,-0.2629 -2.9286,-1.4268 -3.3791,-1.577 -0.4506,-0.1501 -0.7885,-0.2628 -1.1264,0.2629 -0.3379,0.4881 -1.2766,1.5769 -1.5769,1.9148 -0.3004,0.3379 -0.5632,0.3755 -1.0513,0.1126 -0.4881,-0.2628 -2.065,-0.7509 -3.9799,-2.4404 -1.4643,-1.3142 -2.4405,-2.8911 -2.7408,-3.3792 -0.3004,-0.4881 -0.0376,-0.7509 0.2253,-1.0137 0.2252,-0.2253 0.4881,-0.5632 0.7509,-0.8636 0.2628,-0.3003 0.3379,-0.4881 0.4881,-0.826 0.1501,-0.3379 0.0751,-0.6007 -0.0376,-0.8635 -0.1126,-0.2628 -1.1264,-2.6658 -1.5394,-3.642 -0.413,-0.9762 -0.826,-0.9386 -1.1263,-0.9386 -0.3004,0 -0.826,0.0751 -0.826,0.0751 0,0 -0.9762,0.1126 -1.4268,0.6007 -0.4505,0.4881 -1.7271,1.6896 -1.7271,4.0925 0,2.4029 1.7647,4.7308 2.0275,5.0687 0.2628,0.3379 3.4167,5.4441 8.4102,7.3965 5.0687,1.9899 5.0687,1.3141 5.9698,1.239 0.9011,-0.0751 2.9286,-1.2014 3.3416,-2.3278 0.413,-1.1264 0.413,-2.1026 0.2628,-2.3279 z"
       fill="#ffffff"
       id="path4" />
  </g>
  <defs
     id="defs28">
    <filter
       id="filter0_d"
       x="0"
       y="0"
       width="83"
       height="83"
       filterUnits="userSpaceOnUse"
       color-interpolation-filters="sRGB">
      <feFlood
         flood-opacity="0"
         result="BackgroundImageFix"
         id="feFlood8" />
      <feColorMatrix
         in="SourceAlpha"
         type="matrix"
         values="0 0 0 0 0 0 0 0 0 0 0 0 0 0 0 0 0 0 127 0"
         id="feColorMatrix10" />
      <feOffset
         dy="4"
         id="feOffset12" />
      <feGaussianBlur
         stdDeviation="2"
         id="feGaussianBlur14" />
      <feColorMatrix
         type="matrix"
         values="0 0 0 0 0 0 0 0 0 0 0 0 0 0 0 0 0 0 0.25 0"
         id="feColorMatrix16" />
      <feBlend
         mode="normal"
         in2="BackgroundImageFix"
         result="effect1_dropShadow"
         id="feBlend18" />
      <feBlend
         mode="normal"
         in="SourceGraphic"
         in2="effect1_dropShadow"
         result="shape"
         id="feBlend20" />
    </filter>
    <linearGradient
       id="paint0_linear"
       x1="41.4948"
       y1="74.9897"
       x2="41.4948"
       y2="0"
       gradientUnits="userSpaceOnUse">
      <stop
         stop-color="#20B038"
         id="stop23" />
      <stop
         offset="1"
         stop-color="#60D66A"
         id="stop25" />
    </linearGradient>
  </defs>
  <circle
     style="fill:#ff0000;stroke-width:2.8033"
     id="path313"
     cx="65.275948"
     cy="9.6834154"
     r="9.3620796" />
  <text
     xml:space="preserve"
     style="font-style:normal;font-variant:normal;font-weight:bold;font-stretch:normal;font-size:14.4756px;font-family:Arial;-inkscape-font-specification:'Arial, Bold';font-variant-ligatures:normal;font-variant-caps:normal;font-variant-numeric:normal;font-variant-east-asian:normal;fill:#ffffff;stroke-width:0.585656"
     x="61.343971"
     y="14.520599"
     id="text475"><tspan
       sodipodi:role="line"
       id="tspan473"
       x="61.343971"
       y="14.520599"
       style="font-style:normal;font-variant:normal;font-weight:bold;font-stretch:normal;font-size:14.4756px;font-family:Arial;-inkscape-font-specification:'Arial, Bold';font-variant-ligatures:normal;font-variant-caps:normal;font-variant-numeric:normal;font-variant-east-asian:normal;fill:#ffffff;stroke-width:0.585656">1</tspan></text>
</svg>

<svg width="83" height="83" viewBox="0 0 83 83" fill="none" xmlns="http://www.w3.org/2000/svg">
<g filter="url(#filter0_d)">
<path d="M41.5 75C62.2107 75 79 58.2107 79 37.5C79 16.7893 62.2107 0 41.5 0C20.7893 0 4 16.7893 4 37.5C4 58.2107 20.7893 75 41.5 75Z" fill="url(#paint0_linear)"/>
<path fill-rule="evenodd" clip-rule="evenodd" d="M63 35.9744C63 47.0128 53.989 55.9487 42.8755 55.9487C39.3462 55.9487 36.0421 55.0476 33.1511 53.4707L22 57L25.6419 46.2995C23.8022 43.2582 22.7509 39.7289 22.7509 35.9744C22.7509 24.9359 31.7619 16 42.8755 16C53.989 16 63 24.9359 63 35.9744ZM42.8755 19.1914C33.5641 19.1914 25.9423 26.7381 25.9423 35.9744C25.9423 39.6538 27.1438 43.033 29.1712 45.8114L27.0687 52.044L33.5641 49.9789C36.2299 51.7436 39.4212 52.7573 42.8755 52.7573C52.1868 52.7573 59.7711 45.2106 59.7711 35.9744C59.7711 26.7005 52.1868 19.1914 42.8755 19.1914ZM53.0128 40.5549C52.9002 40.3672 52.5623 40.217 52.0742 39.9918C51.5861 39.7289 49.1456 38.565 48.6951 38.4148C48.2445 38.2647 47.9066 38.152 47.5687 38.6777C47.2308 39.1658 46.2921 40.2546 45.9918 40.5925C45.6914 40.9304 45.4286 40.968 44.9405 40.7051C44.4524 40.4423 42.8755 39.9542 40.9606 38.2647C39.4963 36.9505 38.5201 35.3736 38.2198 34.8855C37.9194 34.3974 38.1822 34.1346 38.4451 33.8718C38.6703 33.6465 38.9332 33.3086 39.196 33.0082C39.4588 32.7079 39.5339 32.5201 39.6841 32.1822C39.8342 31.8443 39.7592 31.5815 39.6465 31.3187C39.5339 31.0559 38.5201 28.6529 38.1071 27.6767C37.6941 26.7005 37.2811 26.7381 36.9808 26.7381C36.6804 26.7381 36.1548 26.8132 36.1548 26.8132C36.1548 26.8132 35.1786 26.9258 34.728 27.4139C34.2775 27.902 33.0009 29.1035 33.0009 31.5064C33.0009 33.9093 34.7656 36.2372 35.0284 36.5751C35.2912 36.913 38.4451 42.0192 43.4386 43.9716C48.5073 45.9615 48.5073 45.2857 49.4084 45.2106C50.3095 45.1355 52.337 44.0092 52.75 42.8828C53.163 41.7564 53.163 40.7802 53.0128 40.5549Z" fill="white"/>
</g>
<defs>
<filter id="filter0_d" x="0" y="0" width="83" height="83" filterUnits="userSpaceOnUse" color-interpolation-filters="sRGB">
<feFlood flood-opacity="0" result="BackgroundImageFix"/>
<feColorMatrix in="SourceAlpha" type="matrix" values="0 0 0 0 0 0 0 0 0 0 0 0 0 0 0 0 0 0 127 0"/>
<feOffset dy="4"/>
<feGaussianBlur stdDeviation="2"/>
<feColorMatrix type="matrix" values="0 0 0 0 0 0 0 0 0 0 0 0 0 0 0 0 0 0 0.25 0"/>
<feBlend mode="normal" in2="BackgroundImageFix" result="effect1_dropShadow"/>
<feBlend mode="normal" in="SourceGraphic" in2="effect1_dropShadow" result="shape"/>
</filter>
<linearGradient id="paint0_linear" x1="41.4948" y1="74.9897" x2="41.4948" y2="0" gradientUnits="userSpaceOnUse">
<stop stop-color="#20B038"/>
<stop offset="1" stop-color="#60D66A"/>
</linearGradient>
</defs>
</svg>
